24x24/apps/wootility.svg

<svg xmlns="http://www.w3.org/2000/svg" width="24" height="24" version="1">
 <rect style="opacity:0.2" width="21" height="15" x="2" y="4.5" rx=".955" ry="1.071"/>
 <rect style="fill:#f4f4f7" width="21" height="15" x="2" y="4" rx=".955" ry="1.071"/>
 <rect style="fill:#4f4f4f" width="17" height="11" x="4" y="6"/>
 <path style="opacity:0.2" d="M 5.75,8.5000002 7,15.5 h 3 1 3 1.1 3 l 1.25,-6.9999998 h -3 L 15.636133,12.5 H 14 V 8.5000002 H 11 V 12.5 H 9.463867 L 8.75,8.5000002 Z"/>
 <path style="fill:#f4f4f7" d="M 5.75,8 7,15 h 3 1 3 1.1 3 l 1.25,-7 h -3 l -0.713867,4 H 14 V 8 h -3 v 4 H 9.463867 L 8.75,8 Z"/>
 <path style="fill:#f4f4f7;opacity:0.2" d="M 2.9550781 4 C 2.42626 4 2 4.4786942 2 5.0722656 L 2 5.5722656 C 2 4.9786942 2.42626 4.5 2.9550781 4.5 L 22.044922 4.5 C 22.57374 4.5 23 4.9786942 23 5.5722656 L 23 5.0722656 C 23 4.4786942 22.57374 4 22.044922 4 L 2.9550781 4 z"/>
 <path style="opacity:0.2;fill:#f4f4f7" d="M 5.75 8 L 5.8398438 8.5 L 8.75 8.5 L 9.4628906 12.5 L 11 12.5 L 11 12 L 9.4628906 12 L 8.75 8 L 5.75 8 z M 11 8 L 11 8.5 L 14 8.5 L 14 8 L 11 8 z M 16.349609 8 L 15.636719 12 L 14 12 L 14 12.5 L 15.636719 12.5 L 16.349609 8.5 L 19.259766 8.5 L 19.349609 8 L 16.349609 8 z"/>
 <rect style="opacity:0.2" width="17" height=".5" x="4" y="6"/>
 <rect style="opacity:0.2;fill:#f4f4f7" width="17" height=".5" x="4" y="17"/>
</svg>

<svg xmlns="http://www.w3.org/2000/svg" width="24" height="24" version="1"><rect style="opacity:.2" width="21" height="15" x="2" y="4.5" rx=".955" ry="1.071"/><rect style="fill:#f4f4f7" width="21" height="15" x="2" y="4" rx=".955" ry="1.071"/><path style="fill:#4f4f4f" d="M4 6h17v11H4z"/><path style="opacity:.2" d="m5.75 8.5 1.25 7h11.1l1.25-7h-3l-.714 4H14v-4h-3v4H9.464l-.714-4z"/><path style="fill:#f4f4f7" d="M5.75 8 7 15h11.1l1.25-7h-3l-.714 4H14V8h-3v4H9.464L8.75 8z"/><path style="fill:#f4f4f7;opacity:.2" d="M2.955 4C2.426 4 2 4.479 2 5.072v.5c0-.593.426-1.072.955-1.072h19.09c.529 0 .955.479.955 1.072v-.5C23 4.48 22.574 4 22.045 4H2.955z"/><path style="opacity:.2;fill:#f4f4f7" d="m5.75 8 .09.5h2.91l.713 4H11V12H9.463L8.75 8h-3zM11 8v.5h3V8h-3zm5.35 0-.713 4H14v.5h1.637l.713-4h2.91l.09-.5h-3z"/><path style="opacity:.2" d="M4 6h17v.5H4z"/><path style="opacity:.2;fill:#f4f4f7" d="M4 17h17v.5H4z"/></svg>
